X: 1
T:O'er Muir Amang the Heather
M:C
L:1/8
Q:80
C:
S:Strathspey
K:HP
|: e|
{g}G2{gGd}G3/2{d}B/2{g}G2{gGd}G3/2{d}B/2|
{g}A2{GdGe}A3/2B/2{Gdc}d{e}G{gBd}B{d}G|
{Gdc}d3/2e/2{gde}d3/2B/2{Gdc}d3/2e/2{gf}g3/2a/2|  !
g/2f/2e{gf}g3/2B/2{g}A3/2B/2{g}A/2{d}G3/2:| |:
{g}G3/2B/2{gf}g3/2a/2g/2f/2e{gf}g3/2d/2|
{g}e/2a3/2{g}a3/2g/2{ag}a2{GdG}a3/2e/2|  !
{gf}g3/2a/2g/2f/2e{Gdc}d3/2e/2{gf}g3/2a/2|
g/2f/2e{gf}g3/2B/2{g}A3/2B/2{g}A/2{d}G3/2:|
